X:54
T:Kershaw Hornpipe. JBu.54
T:Lady Flashdash Hornpipe,aka. JBu.54
T:Duke’s Hornpipe,aka. JBu.54
T:Black’s Hornpipe,aka. JBu.54
T:Loyalist Hornpipe,aka. JBu.54
O:England,South Yorkshire
S:Joshua Burnett’s MS,c1835,S.Yorkshire
M:C
L:1/8
Q:1/2=80
R:.hornpipe
Z:vmp.R.Greig.2011
K:D
AB/c/|dfdf ecAc|dBGB AFDF|GBAc Bged|c2A2A2AB/c/|
dAA2 eAA2|fefg aAAc|BdGB AFGE|D2D2D2:|
|:AB/c/|dAdA FAFA|BGEG BGdB|fefd ecdB|cfed cBAG|
Fdd2Gee2|Aff2Bgg2|fafd Bgec d2d2d2:|

